X: 40430
T: Tom Mhic's
R: polka
M: 2/4
K: Dmajor
|:d2 c2|BA FA|B2 B>c|BA FA|
d2 c2|BA FD|EF GE|ED D2:|
|:DE FA|BA FD|EF GA|BA FE|
DE FA|BA FD|EF GE|ED D2:|

